X: 42727
T: Whistling Prince
R: hornpipe
M: 4/4
K: Gmajor
|:D2|G>B A>F G2 D2|G>B d>e d2 B>A|
G>B d>e d2 B2|A>G A>B G2:|
|:d2|e>f g2 e>f g2|e>f g>a g2 f>e|
d2 d2 d2 B2|A>G A>B G2:|

